icons/Logos/trello-fill.svg

<svg viewBox="0 0 24 24" xmlns="http://www.w3.org/2000/svg"><path d="M5.25098 3H18.751C19.993 3 21.001 4.00737 21.001 5.25V18.75C21.001 19.992 19.9935 21 18.751 21H5.25098C4.00898 21 3.00098 19.9925 3.00098 18.75V5.25C3.00098 4.008 4.00835 3 5.25098 3ZM13.171 6.42054V12.1795C13.171 12.7762 13.6545 13.26 14.2507 13.26H17.5812C18.1776 13.26 18.661 12.7765 18.661 12.1795V6.42054C18.661 5.82384 18.1774 5.34 17.5812 5.34H14.2507C13.6543 5.34 13.171 5.82348 13.171 6.42054ZM5.34098 6.42045V16.6796C5.34098 17.2762 5.82455 17.76 6.42071 17.76H9.75125C10.3476 17.76 10.831 17.277 10.831 16.6796V6.42045C10.831 5.82375 10.3474 5.34 9.75125 5.34H6.42071C5.82428 5.34 5.34098 5.82303 5.34098 6.42045Z"/></svg>

<svg xmlns="http://www.w3.org/2000/svg" viewBox="0 0 24 24">
    <g>
        <path fill="none" d="M0 0h24v24H0z"/>
        <path fill-rule="nonzero" d="M5.25 3h13.5A2.25 2.25 0 0 1 21 5.25v13.5A2.25 2.25 0 0 1 18.75 21H5.25A2.25 2.25 0 0 1 3 18.75V5.25A2.25 2.25 0 0 1 5.25 3zm7.92 3.42v5.76c0 .596.484 1.08 1.08 1.08h3.33a1.08 1.08 0 0 0 1.08-1.08V6.42a1.08 1.08 0 0 0-1.08-1.08h-3.33a1.08 1.08 0 0 0-1.08 1.08zm-7.83 0v10.26c0 .596.484 1.08 1.08 1.08h3.33a1.08 1.08 0 0 0 1.08-1.08V6.42a1.08 1.08 0 0 0-1.08-1.08H6.42a1.08 1.08 0 0 0-1.08 1.08z"/>
    </g>
</svg>
